src/dsmComponents/Icons/battery-half-20px.svg

<?xml version="1.0" encoding="UTF-8"?>
<svg width="14px" height="20px" viewBox="0 0 14 20" version="1.1" xmlns="http://www.w3.org/2000/svg" xmlns:xlink="http://www.w3.org/1999/xlink">
    <!-- Generator: Sketch 59.1 (86144) - https://sketch.com -->
    <title>battery-half-20px</title>
    <desc>Created with Sketch.</desc>
    <defs>
        <path d="M13.125,3.33333333 L0.875,3.33333333 C0.391750844,3.33333333 0,3.70642938 0,4.16666667 L0,19.1666667 C0,19.626904 0.391750844,20 0.875,20 L13.125,20 C13.6082492,20 14,19.626904 14,19.1666667 L14,4.16666667 C14,3.70642938 13.6082492,3.33333333 13.125,3.33333333 Z M10.5,17.0833333 L3.5,17.0833333 L3.5,15.4166667 L10.5,15.4166667 L10.5,17.0833333 Z M10.5,12.5 L10.5,14.1666667 L3.5,14.1666667 L3.5,12.5 L10.5,12.5 Z M10.5,0 L10.5,1.66666667 L3.5,1.66666667 L3.5,0 L10.5,0 Z" id="path-1"></path>
    </defs>
    <g id="Final" stroke="none" stroke-width="1" fill="none" fill-rule="evenodd">
        <g id="All-Nucleo-Icons" transform="translate(-466.000000, -535.000000)">
            <g id="Solo/Nucleo/20px/battery-half" transform="translate(461.000000, 533.000000)">
                <g transform="translate(5.000000, 2.000000)" id="battery-half-full">
                    <g>
                        <g id="Colour/Default-Colour">
                            <mask id="mask-2" fill="white">
                                <use xlink:href="#path-1"></use>
                            </mask>
                            <g id="Mask" fill-rule="nonzero"></g>
                            <g id="colour/neutral/chia" mask="url(#mask-2)" fill="#737373">
                                <g transform="translate(-25.000000, -22.000000)" id="Colour">
                                    <rect x="0" y="0" width="64" height="64"></rect>
                                </g>
                            </g>
                        </g>
                    </g>
                </g>
            </g>
        </g>
    </g>
</svg>

<svg width="14" height="20" xmlns="http://www.w3.org/2000/svg" xmlns:xlink="http://www.w3.org/1999/xlink"><defs><path d="M13.125 3.333H.875c-.483 0-.875.373-.875.834v15c0 .46.392.833.875.833h12.25c.483 0 .875-.373.875-.833v-15c0-.46-.392-.834-.875-.834zM10.5 17.083h-7v-1.666h7v1.666zm0-4.583v1.667h-7V12.5h7zm0-12.5v1.667h-7V0h7z" id="battery-half-20px_svg__a"/></defs><use fill="#737373" xlink:href="#battery-half-20px_svg__a" fill-rule="evenodd"/></svg>
